X:38
T:Mon père il m'a mariée 
R:Laridé
C:Trad.
D:voir Groupe sans gain
O:France
A:Bretagne
Z: Eric Forgeot - http://anamnese.online.fr
M:4/4
L:1/8
Q:1/4=135
K:F
   DA AA AB A2 | G>A GE FG AF |
   DA AA AB A2 | G>A GE FG AF |
|: D2 FF AA G2 | G>A GE FG AF |
   D2 FF AA G2 | G>A GE FE D2 :|
W:Mon père il m'a mariée (4x)
W:
W:A un drôle de beau gré 
W:gai laridon madondaine
W:A un drôle de beau gré 
W:gai laridon madondé
W:
W:Et il s'en va au marché
W:Sans rien me rapporter
W:Qu'un bâton de vert pommier
W:C'est pour m'y corriger
W:Mais un jour je m'en irai
W:Je te laisserai seul te saoûler
W:
W:Je m'en irai chez le curé
W:logera dans son grenier
W:Et moi je le servirai
W:Et beaucoup mieux que toué


